brandFactory_export/2.Regular/Data server_Servidor de datos_2Regular.svg

<?xml version="1.0" encoding="UTF-8"?>
<svg width="24px" height="24px" viewBox="0 0 24 24" version="1.1" xmlns="http://www.w3.org/2000/svg" xmlns:xlink="http://www.w3.org/1999/xlink">
    <title>2.Regular/Data server_Servidor de datos_2Regular</title>
    <g id="Symbols" stroke="none" stroke-width="1" fill="none" fill-rule="evenodd">
        <g id="2.Regular/Data-server_Servidor-de-datos_2Regular" fill="#5CB615" fill-rule="nonzero">
            <path d="M20.7563025,22.1378151 C19.8420168,22.1378151 19.3747899,21.707563 19.3647059,20.8605042 L19.3647059,20.6756303 C19.3781513,20.0840336 19.6302521,19.3882353 20.7159664,19.3647059 C20.7327731,19.3647059 20.7462185,19.3747899 20.7630252,19.3747899 C20.7798319,19.3747899 20.7966387,19.3647059 20.8134454,19.3647059 C21.902521,19.3848739 22.1478992,20.0773109 22.1579832,20.6756303 L22.1579832,20.8369748 C22.1478992,21.7008403 21.6773109,22.1378151 20.7563025,22.1378151 Z M4.32605042,20.6655462 L4.32605042,20.8403361 C4.31260504,21.7042017 3.84201681,22.1411765 2.9210084,22.1411765 C2.00336134,22.1411765 1.53613445,21.7109244 1.52941176,20.8605042 L1.52941176,20.8571429 L1.53277311,20.6823529 C1.54621849,20.0806723 1.80168067,19.364694 2.93445378,19.364694 C4.06386555,19.3613445 4.31260504,20.0705882 4.32605042,20.6655462 Z M8.2789916,11.3680672 L8.2789916,10.0571429 C8.44033613,10.1210084 8.59831933,10.1882353 8.77983193,10.2453782 C9.60672269,10.4941176 10.6823529,10.6285714 11.8117647,10.6285714 C12.9411765,10.6285714 14.0168067,10.4907563 14.8403361,10.2453782 C15.0151261,10.194958 15.1697479,10.1277311 15.3277311,10.0605042 L15.3277311,11.3647059 C15.3277311,11.4991597 15.0386555,11.7277311 14.4067227,11.9159664 C13.0184874,12.3294118 10.5915966,12.3294118 9.20672269,11.9159664 C8.56806723,11.7344538 8.2789916,11.502521 8.2789916,11.3680672 L8.2789916,11.3680672 Z M9.20336134,1.79495798 C9.89579832,1.58655462 10.8168067,1.47563025 11.8016807,1.47563025 C12.7865546,1.47563025 13.7142857,1.58991597 14.4033613,1.79495798 C14.810084,1.91596639 15.0588235,2.05378151 15.2,2.17142857 C15.0823529,2.26890756 14.8537815,2.40336134 14.410084,2.53445378 C13.0319328,2.94789916 10.5915966,2.94789916 9.21344538,2.53445378 C8.77983193,2.40672269 8.54453782,2.26890756 8.41680672,2.16134454 C8.54453782,2.05714286 8.77647059,1.92268908 9.20336134,1.79495798 L9.20336134,1.79495798 Z M8.2789916,6.90756303 C8.44033613,6.97142857 8.59831933,7.03865546 8.77983193,7.09243697 C9.60672269,7.34117647 10.6823529,7.47563025 11.8117647,7.47563025 C12.9411765,7.47563025 14.0168067,7.33781513 14.8403361,7.09243697 C15.0151261,7.04201681 15.1697479,6.97478992 15.3277311,6.90756303 L15.3277311,8.32268908 C15.2033613,8.46386555 14.9142857,8.67226891 14.410084,8.82352941 C13.0319328,9.23697479 10.5915966,9.23697479 9.21344538,8.82352941 C8.64537815,8.65210084 8.38319328,8.45378151 8.2789916,8.3394958 L8.2789916,6.90756303 L8.2789916,6.90756303 Z M8.77983193,3.95630252 C9.60672269,4.20504202 10.6823529,4.3394958 11.8117647,4.3394958 C12.9411765,4.3394958 14.0168067,4.20168067 14.8403361,3.95630252 C15.0218487,3.90252101 15.1731092,3.83865546 15.3277311,3.77478992 L15.3277311,5.1697479 C15.2067227,5.31092437 14.9109244,5.51932773 14.410084,5.67058824 C13.0319328,6.08403361 10.594958,6.08403361 9.21344538,5.67058824 C8.64201681,5.50252101 8.38319328,5.30084034 8.28235294,5.18991597 L8.28235294,3.76806723 C8.44033613,3.83529412 8.59495798,3.90252101 8.77983193,3.95630252 L8.77983193,3.95630252 Z M23.6537815,20.6386555 C23.6369748,19.5294118 23.0487395,18.2588235 21.512605,17.9495798 L21.512605,15.6571429 C21.512605,15.2470588 21.1764706,14.9142857 20.7663866,14.9142857 L12.5243697,14.9142857 C12.5277311,14.8840336 12.5445378,14.8571429 12.5445378,14.8235294 L12.5445378,13.707563 C13.394958,13.6605042 14.1915966,13.5394958 14.8369748,13.3478992 C16.4773109,12.8571429 16.8235294,12 16.8235294,11.3714286 L16.8235294,2.34957983 C16.8235294,1.7210084 16.4773109,0.863865546 14.8369748,0.373109244 C13.1798319,-0.121008403 10.4302521,-0.121008403 8.77310924,0.373109244 C7.69411765,0.695798319 7.0487395,1.21008403 6.84705882,1.90252101 C6.80672269,2.04369748 6.78319328,2.19495798 6.78319328,2.34957983 L6.78319328,11.3714286 C6.78319328,12 7.12941176,12.8571429 8.77310924,13.3478992 C9.41176471,13.5394958 10.2016807,13.6605042 11.0453782,13.707563 L11.0453782,14.8235294 C11.0453782,14.8537815 11.0588235,14.8806723 11.0621849,14.9142857 L2.91092437,14.9142857 C2.71260504,14.9142857 2.5210084,14.9915966 2.37983193,15.1327731 C2.23865546,15.2739496 2.16134454,15.4621849 2.16134454,15.6605042 L2.17142857,17.9529412 C0.648739496,18.2689076 0.0571428571,19.5361345 0.0302521008,20.6386555 C0.0268907563,20.712605 0.0268907563,20.7966387 0.0268907563,20.8739496 C0.0403361345,22.1445378 0.803361345,23.6268908 2.91428571,23.6268908 C5.02857143,23.6268908 5.79831933,22.1378151 5.81512605,20.8605042 L5.81512605,20.6386555 C5.79159664,19.5294118 5.20336134,18.2554622 3.66722689,17.9495798 L3.6605042,16.4 L20.0134454,16.4 L20.0134454,17.9529412 C18.487395,18.2689076 17.892437,19.5394958 17.8655462,20.6521008 L17.8655462,20.8739496 C17.8756303,22.1445378 18.6386555,23.6268908 20.7529412,23.6268908 C22.8638655,23.6268908 23.6369748,22.1378151 23.6537815,20.8605042 C23.6571429,20.7798319 23.6571429,20.6957983 23.6537815,20.6386555 Z" id="Data-server_Servidor-de-datos_2Regular"></path>
        </g>
    </g>
</svg>

<svg width="24" height="24" viewBox="0 0 24 24" xmlns="http://www.w3.org/2000/svg"><path d="M20.756 22.138c-.914 0-1.381-.43-1.391-1.277v-.185c.013-.592.265-1.288 1.351-1.311.017 0 .03.01.047.01s.034-.01.05-.01c1.09.02 1.335.712 1.345 1.31v.162c-.01.864-.48 1.3-1.402 1.3zm-16.43-1.472v.174c-.013.864-.484 1.301-1.405 1.301-.918 0-1.385-.43-1.392-1.28v-.004l.004-.175c.013-.601.269-1.317 1.401-1.317 1.13-.004 1.379.706 1.392 1.3zm3.953-9.298v-1.31c.161.063.32.13.5.187.828.25 1.903.384 3.033.384s2.205-.138 3.028-.384c.175-.05.33-.117.488-.184v1.304c0 .134-.29.363-.921.551-1.389.413-3.815.413-5.2 0-.639-.182-.928-.413-.928-.548zm.924-9.573c.693-.208 1.614-.32 2.599-.32.985 0 1.912.115 2.601.32.407.121.656.259.797.376-.118.098-.346.232-.79.363-1.378.414-3.818.414-5.197 0-.433-.127-.668-.265-.796-.373.128-.104.36-.238.786-.366zM8.28 6.908c.161.063.32.13.5.184.828.25 1.903.384 3.033.384s2.205-.138 3.028-.384c.175-.05.33-.117.488-.184v1.415c-.125.14-.414.35-.918.5-1.378.414-3.818.414-5.197 0-.568-.17-.83-.37-.934-.484V6.908zm.5-2.952c.828.249 1.903.383 3.033.383s2.205-.137 3.028-.383c.182-.053.333-.117.488-.181V5.17c-.121.14-.417.35-.918.5-1.378.414-3.815.414-5.197 0-.571-.167-.83-.37-.93-.48V3.768c.157.067.312.135.497.188zM23.655 20.64c-.017-1.11-.605-2.38-2.141-2.69v-2.292a.746.746 0 00-.747-.743h-8.242c.004-.03.02-.057.02-.09v-1.116c.851-.047 1.648-.169 2.293-.36 1.64-.49 1.987-1.348 1.987-1.977V2.35c0-.629-.347-1.486-1.987-1.977-1.657-.494-4.407-.494-6.064 0-1.079.323-1.724.837-1.926 1.53-.04.14-.064.292-.064.447v9.021c0 .629.346 1.486 1.99 1.977.639.191 1.429.313 2.272.36v1.116c0 .03.014.057.017.09H2.911a.743.743 0 00-.75.746l.01 2.293C.65 18.269.057 19.536.031 20.639c-.004.074-.004.158-.004.235.013 1.27.776 2.753 2.887 2.753 2.115 0 2.884-1.49 2.901-2.766v-.222c-.023-1.11-.612-2.384-2.148-2.69L3.661 16.4h16.352v1.553c-1.526.316-2.12 1.586-2.147 2.7v.22c.01 1.272.773 2.754 2.887 2.754 2.11 0 2.884-1.49 2.9-2.766.004-.081.004-.165 0-.222z" fill="#5CB615" fill-rule="nonzero"/></svg>
